!!!!SEGMENT: pl-kk--kk-i-15--003_asola-giovanni-matteo--o-altitudo-divitiarum.krn
!!!cenid: 16xx:1120
!!!COM: Asola, Giovanni Matteo
!!!COM-rismid: pe20000387
!!!CDT: <=1532-1609/10/01
!!!CNT: Italian
!!!OTL: O altitudo divitiarum
!!!PDT:
!!!AGN: Sacred
!!!SMS-siglum: PL-Kk
!!!SMS-shelfmark: Kk.I.15
!!!SMS-shelfwork: 003 W
!!!SMS-variant:
!!!SMS-altvar:
!!!NIFC-rismid: 1001146645
!!!URL-scan: http://repozytorium.nifc.pl/skany/pl-kk-nut--i-15
!!!ONB-nifc: UWAGA: C (skan 0003), A (skan 0021-0022), T (skan 0038), B (skan 0056). Następny motet: O rex gloriae
!!!key:
**kern	**text	**kern	**text	**kern	**text	**kern	**text
*part4	*part4	*part3	*part3	*part2	*part2	*part1	*part1
*staff4	*staff4	*staff3	*staff3	*staff2	*staff2	*staff1	*staff1
*group1	*	*group1	*	*group1	*	*group1	*
*Iempty	*	*Itenor	*	*Ialto	*	*Ivox	*
*I"Baſso	*	*I"Tenore.	*	*I"Alto	*	*I"Canto.	*
*I'B	*	*I'T	*	*I'A	*	*I'S	*
*clefF3	*	*clefC3	*	*clefC3	*	*clefC2	*
*k[b-]	*	*k[b-]	*	*k[b-]	*	*k[b-]	*
*F:	*	*F:	*	*F:	*	*F:	*
*M2/1	*	*M2/1	*	*M2/1	*	*M2/1	*
*met(C|)	*	*met(C|)	*	*met(C|)	*	*met(C|)	*
*all\right	*	*all\right	*	*all\right	*	*all\right	*
=1-	=1-	=1-	=1-	=1-	=1-	=1-	=1-
!LO:TX:t=P:problem= przy kluczu BB-, B-	!	!LO:TX:t=P:problem=kreska pseudotaktowa	!	!	!	!LO:TX:t=P:problem= przy kluczu B- b-	!
!	!	!	!	!	!	!LO:TX:a:t=Mottetto	!
00r	.	1r	.	1c	O	00r	.
.	.	1F	O	1.f	Al-	.	.
=2-	=2-	=2-	=2-	=2-	=2-	=2-	=2-
.	.	1.c	Al-	.	.	.	.
*	*	*	*	*2\right	*	*	*
!	!	!	!	!LO:TX:t=P:problem=kreska pseudotaktowa	!	!	!
.	.	.	.	2e\	-ti-	.	.
.	.	.	.	1d	-tu-	.	.
!	!	!LO:TX:t=P:problem=kreska pseudotaktowa	!	!	!	!	!
.	.	2B-/	-ti-	.	.	.	.
=3-	=3-	=3-	=3-	=3-	=3-	=3-	=3-
*	*	*lig	*	*	*	*	*
!LO:TX:t=P:problem=kreska pseudotaktowa	!	!	!	!	!	!	!
1r	.	1A	-tu-	2c,</	-do	0r	.
*	*	*	*	*	*ij	*	*
!	!	!	!	!LO:TX:t=P:problem=kreska pseudotaktowa	!	!	!
.	.	.	.	2f\	O	.	.
!	!	!	!	!LO:N:vis=2.	!	!	!
1C	O	1G	.	2f\	Al-	.	.
!	!	!	!	!LO:N:vis=2.	!	!	!
.	.	.	.	2e\	-ti-	.	.
*	*	*Xlig	*	*	*	*	*
=4-	=4-	=4-	=4-	=4-	=4-	=4-	=4-
!	!	!LO:TX:t=P:problem=kreska pseudotaktowa	!	!	!	!LO:TX:t=P:problem=kreska pseudotaktowa	!
1.F	Al-	1A	-do	2f\	-tu-	1r	.
.	.	.	.	2.c/	.	.	.
!	!	!LO:TX:t=P:problem=kreska pseudotaktowa	!	!	!	!	!
.	.	1r	.	.	.	1c	O
.	.	.	.	4B-/	.	.	.
!LO:TX:t=P:problem=kreska pseudotaktowa	!	!	!	!LO:TX:t=P:problem=kreska pseudotaktowa	!	!	!
2E/	-ti-	.	.	2G/	-do	.	.
*	*	*	*ij	*	*Xij	*	*
=5-	=5-	=5-	=5-	=5-	=5-	=5-	=5-
1D	-tu-	1F	O	2.A/	Al-	1.f	Al-
.	.	.	.	4B-/	-ti-	.	.
!LO:TX:t=P:problem=kreska pseudotaktowa	!	!	!	!	!	!	!
1C	-do	1.c	Al-	0A	-tu-	.	.
!	!	!	!	!	!	!LO:TX:t=P:problem=kreska pseudotaktowa	!
.	.	.	.	.	.	2e/	-ti-
=6-	=6-	=6-	=6-	=6-	=6-	=6-	=6-
!LO:TX:t=P:problem=kreska pseudotaktowa	!	!	!	!	!	!	!
1rF	.	.	.	.	.	1d	-tu-
!	!	!LO:TX:t=P:problem=kreska pseudotaktowa	!	!	!	!	!
.	.	2B-/	-ti-	.	.	.	.
!	!	!	!	!	!	!LO:TX:t=P:problem=kreska pseudotaktowa	!
*	*ij	*	*	*	*	*	*
1F	O	1A	-tu-	2A/	-do	1c	-do
.	.	.	.	2.f\	O	.	.
=7-	=7-	=7-	=7-	=7-	=7-	=7-	=7-
1.B-X	Al-	2G,</	-do	.	.	1re	.
.	.	.	.	4e\	.	.	.
!	!	!	!	!LO:LB:g=original	!	!	!
.	.	1d	O-	4d\	.	.	.
!	!	!	!	!LO:TX:t=P:problem=kreska pseudotaktowa	!	!	!
.	.	.	.	4c\	.	.	.
!	!	!	!	!	!	!LO:TX:t=P:problem=kreska pseudotaktowa	!
*2\right	*	*	*	*	*	*	*ij
.	.	.	.	2B-/	Al-	1f	O
!	!	!	!	!LO:TX:t=P:problem=kreska pseudotaktowa	!	!	!
2A\	-ti-	1f\	-Al-	2c/	-ti-	.	.
=8-	=8-	=8-	=8-	=8-	=8-	=8-	=8-
1G	-tu-	.	.	2d\	-tu-	1.b-	Al-
*	*	*2\right	*	*	*	*	*
*	*	*custos:f	*	*	*	*	*
!	!	!LO:TX:t=P:problem=kreska pseudotaktowa	!	!	!	!	!
.	.	2e\	-ti-	2B-/	.	.	.
!LO:TX:t=P:problem=kreska pseudotaktowa	!	!LO:LB:g=original	!	!	!	!	!
1F	-do	1f	-tu-	2c,</	-do	.	.
*	*	*	*	*	*	*2\right	*
!	!	!	!	!	!	!LO:TX:t=P:problem=kreska pseudotaktowa	!
.	.	.	.	2.f\	O	2a\	-ti-
=9-	=9-	=9-	=9-	=9-	=9-	=9-	=9-
!	!	!LO:TX:t=P:problem=kreska pseudotaktowa	!	!	!	!	!
1r	.	1c	-do	.	.	1g	-tu-
.	.	.	.	8e\L	.	.	.
.	.	.	.	8d\J	.	.	.
!	!	!	!	!LO:TX:t=P:problem=kreska pseudotaktowa	!	!	!
.	.	.	.	2e\	.	.	.
!	!	!	!	!	!	!LO:TX:t=P:problem=kreska pseudotaktowa	!
1F	O	2r	.	2f\	.	1f	-do
*	*	*	*	*	*	*	*Xij
.	.	1c\	O	2a\	.	.	.
=10-	=10-	=10-	=10-	=10-	=10-	=10-	=10-
1.c	Al-	.	.	2.g\	Al-	1r	.
!	!	!LO:TX:t=P:problem=kreska pseudotaktowa	!	!	!	!	!
.	.	2.e\	Al-	.	.	.	.
.	.	.	.	4f\	.	.	.
*	*	*	*	*	*	*custos:cc	*
!	!	!	!	!	!	!LO:TX:t=P:problem=kreska pseudotaktowa	!
.	.	.	.	2e\	-ti-	1g	O
.	.	4f\	.	.	.	.	.
!	!	!	!	!LO:TX:t=P:problem=kreska pseudotaktowa	!	!	!
2B-\	-ti-	1g\	.	2d\	.	.	.
!LO:LB:g=original	!	!	!	!	!	!LO:LB:g=original	!
=11-	=11-	=11-	=11-	=11-	=11-	=11-	=11-
1A	-tu-	.	.	1c	-tu-	1.cc	Al-
!	!	!LO:TX:t=P:problem=kreska pseudotaktowa	!	!	!	!	!
.	.	2f\	-ti-	.	.	.	.
2G,<\	-do	1g	-tu-	2d,<\	-do	.	.
*	*Xij	*	*	*	*	*	*
!LO:TX:t=P:problem=kreska pseudotaktowa	!	!	!	!	!	!LO:TX:t=P:problem=kreska pseudotaktowa	!
2G\	di-	.	.	2d\	di-	2b-\	-ti-
=12-	=12-	=12-	=12-	=12-	=12-	=12-	=12-
2A\	-ui-	2e,<\	-do	2c/	-ui-	1a	-tu-
*	*	*	*Xij	*	*	*	*
*	*	*	*	*custos:B	*	*	*
!	!	!LO:TX:t=P:problem=kreska pseudotaktowa	!	!LO:TX:t=P:problem=kreska pseudotaktowa	!	!	!
2F/	-ti-	2f\	di-	2A/	-ti-	.	.
*lig	*	*	*	*	*	*	*
!	!	!	!	!LO:LB:g=original	!	!	!
1G	-a-	2d\	-ui-	4B-/	-a-	2g,<\	-do
.	.	.	.	4c/	.	.	.
!	!	!LO:TX:t=P:problem=kreska pseudotaktowa	!	!	!	!LO:TX:t=P:problem=kreska pseudotaktowa	!
.	.	2B-/	-ti-	4d\	.	2g\	di-
.	.	.	.	4e\	.	.	.
=13-	=13-	=13-	=13-	=13-	=13-	=13-	=13-
!LO:TX:t=P:problem=kreska pseudotaktowa	!	!	!	!	!	!	!
1F	.	0c	-a-	4f\	.	2a\	-ui-
.	.	.	.	4c/	.	.	.
.	.	.	.	1f	.	2f\	-ti-
*Xlig	*	*	*	*	*	*	*
!	!	!	!	!	!	!LO:TX:t=P:problem=kreska pseudotaktowa	!
2C,</	-rum	.	.	.	.	1g	-a-
1c\	Sa-	.	.	2e\	.	.	.
=14-	=14-	=14-	=14-	=14-	=14-	=14-	=14-
!	!	!LO:TX:t=P:problem=kreska pseudotaktowa	!	!LO:TX:t=P:problem=kreska pseudotaktowa	!	!	!
.	.	1F	-rum	1f	-rum	2f\	-rum
2d\	-pi-	.	.	.	.	1a	Sa-
2c\	-en-	1rc	.	0r	.	.	.
!	!	!	!	!	!	!LO:TX:t=P:problem=kreska pseudotaktowa	!
2B-\	-ti-	.	.	.	.	2g\	-pi-
=15-	=15-	=15-	=15-	=15-	=15-	=15-	=15-
!LO:TX:t=P:problem=kreska pseudotaktowa	!	!	!	!	!	!	!
1A	-ae	2rB	.	.	.	2a\	-en-
!	!	!	!	!	!	!LO:TX:t=P:problem=kreska pseudotaktowa	!
.	.	1c	Sa-	.	.	2f\	-ti-
0r	.	.	.	2r	.	2e/	-ae
!	!	!LO:TX:t=P:problem=kreska pseudotaktowa	!	!	!	!LO:TX:t=P:problem=kreska pseudotaktowa	!
.	.	2d\	-pi-	1a\	Sa-	2f\	et
=16-	=16-	=16-	=16-	=16-	=16-	=16-	=16-
*	*	*custos:B	*	*	*	*custos:d	*
.	.	2c/	-en-	.	.	2e/	Sci-
!	!	!LO:LB:g=original	!	!LO:TX:t=P:problem=kreska pseudotaktowa	!	!LO:LB:g=original	!
.	.	2B-/	-ti-	2g\	-pi-	4d/	-en-
!	!	!	!	!	!	!LO:TX:t=P:problem=kreska pseudotaktowa	!
.	.	.	.	.	.	4d/	-ti-
!	!	!LO:TX:t=P:problem=kreska pseudotaktowa	!	!	!	!	!
2r	.	1A	-ae	2a\	-en-	2e,</	-ae
1c\	Sa-	.	.	2f\	-ti-	2.a\	et
=17-	=17-	=17-	=17-	=17-	=17-	=17-	=17-
.	.	0r	.	2e,<\	-ae	.	.
.	.	.	.	.	.	4g\	Sci-
!LO:TX:t=P:problem=kreska pseudotaktowa	!	!	!	!LO:TX:t=P:problem=kreska pseudotaktowa	!	!LO:TX:t=P:problem=kreska pseudotaktowa	!
2d\	-pi-	.	.	2f\	et	2b-\	-en-
2c\	-en-	.	.	2e\	Sci-	4a\	-ti-
.	.	.	.	.	.	4a\	-ae
*custos:A	*	*	*	*	*	*	*
2B-\	-ti-	.	.	2d\	-en-	2g\	De-
!LO:LB:g=original	!	!	!	!	!	!	!
=18-	=18-	=18-	=18-	=18-	=18-	=18-	=18-
!LO:TX:t=P:problem=kreska pseudotaktowa	!	!	!	!	!	!LO:TX:t=P:problem=kreska pseudotaktowa	!
1A	-ae	2r	.	2e\	-ti-	1a	-i
*	*	*	*ij	*	*	*	*
!	!	!	!	!LO:TX:t=P:problem=kreska pseudotaktowa	!	!	!
.	.	1c	Sa-	2f\	-ae	.	.
2r	.	.	.	2g,<\	.	0r	.
*	*ij	*	*	*	*	*	*
!	!	!LO:TX:t=P:problem=kreska pseudotaktowa	!	!	!	!	!
1F\	Sa-	2d\	-pi-	2.f\	De-	.	.
=19-	=19-	=19-	=19-	=19-	=19-	=19-	=19-
.	.	2c/	-en-	.	.	.	.
*	*	*	*	*custos:d	*	*	*
.	.	.	.	4e\	.	.	.
!LO:TX:t=P:problem=kreska pseudotaktowa	!	!	!	!LO:LB:g=original	!	!	!
2G\	-pi-	2B-/	-ti-	1d	.	.	.
!	!	!	!	!	!	!LO:TX:t=P:problem=kreska pseudotaktowa	!
2F/	-en-	2A,</	-ae	.	.	1r	.
*	*	*	*Xij	*	*	*	*
!	!	!LO:TX:t=P:problem=kreska pseudotaktowa	!	!LO:TX:t=P:problem=kreska pseudotaktowa	!	!	!
2E/	-ti-	2G/	et	2c/	.	.	.
=20-	=20-	=20-	=20-	=20-	=20-	=20-	=20-
!LO:TX:t=P:problem=kreska pseudotaktowa	!	!	!	!	!	!	!
1D,<	-ae	2A/	Sci-	2d\	.	1.a	et
*	*Xij	*	*	*	*	*	*
.	.	1d	-en-	2f\	.	.	.
!	!	!	!	!LO:TX:t=P:problem=kreska pseudotaktowa	!	!	!
1.A	et	.	.	1e	-i	.	.
!	!	!	!	!	!	!LO:TX:t=P:problem=kreska pseudotaktowa	!
.	.	4c/	.	.	.	2a\	Sci-
!	!	!LO:TX:t=P:problem=kreska pseudotaktowa	!	!	!	!	!
.	.	4B-/	.	.	.	.	.
=21-	=21-	=21-	=21-	=21-	=21-	=21-	=21-
.	.	2c/	.	1r	.	2f\	-en-
!	!	!	!	!	!	!LO:TX:t=P:problem=kreska pseudotaktowa	!
2G\	Sci-	2B-/	.	.	.	2a\	-ti-
2F/	-en-	2A/	-ti-	2r	.	4a\	-ae
.	.	.	.	.	.	4f\	.
!LO:TX:t=P:problem=kreska pseudotaktowa	!	!LO:TX:t=P:problem=kreska pseudotaktowa	!	!	!	!LO:TX:t=P::problem=kreska pseudotaktowa&colon;między nutą a kropką	!
2E/	-ti-	2G,</	-ae	1c\	et	2.g\	.
=22-	=22-	=22-	=22-	=22-	=22-	=22-	=22-
1D	-ae	2A/	De-	.	.	.	.
*	*	*	*	*	*	*custos:f	*
.	.	.	.	.	.	4f\	.
!	!	!	!	!LO:TX:t=P:problem=kreska pseudotaktowa	!	!LO:LB:g=original	!
.	.	4G/	.	2B-/	Sci-	1f	DE-
*	*	*custos:G	*	*	*	*	*
.	.	4F/	.	.	.	.	.
!	!	!LO:LB:g=original	!	!	!	!	!
1C	DE-	1G	.	2c/	-en-	.	.
!	!	!	!	!	!	!LO:TX:t=P:problem=kreska pseudotaktowa	!
.	.	.	.	2c/	-ti-	2e/	.
=23-	=23-	=23-	=23-	=23-	=23-	=23-	=23-
!LO:TX:t=P:problem=kreska pseudotaktowa	!	!LO:TX:t=P:problem=kreska pseudotaktowa	!	!LO:TX:t=P:problem=kreska pseudotaktowa	!	!LO:TX:t=P:problem=kreska pseudotaktowa	!
1F	-I	1F	-i	1A,<	-ae	1f	-I
*	*	*	*	*	*ij	*	*
00r	.	1.f	et	1.d	et	2rg	.
*	*	*	*	*	*	*	*ij
.	.	.	.	.	.	1a\	et
=24-	=24-	=24-	=24-	=24-	=24-	=24-	=24-
.	.	.	.	.	.	.	.
!	!	!	!	!LO:TX:t=P:problem=kreska pseudotaktowa	!	!LO:TX:t=P:problem=kreska pseudotaktowa	!
.	.	2e\	Sci-	2c/	Sci-	2a\	Sci-
.	.	2d\	-en-	2f\	-en-	2a\	-en-
!	!	!LO:TX:t=P:problem=kreska pseudotaktowa	!	!	!	!LO:TX:t=P:problem=kreska pseudotaktowa	!
.	.	2c/	-ti-	2e\	-ti-	2a\	-ti-
=25-	=25-	=25-	=25-	=25-	=25-	=25-	=25-
!	!	!LO:TX:t=P:problem=kreska pseudotaktowa	!	!	!	!	!
.	.	1d	-ae	1f,<	-ae	2b-\	-ae
*	*	*	*	*	*Xij	*	*
.	.	.	.	.	.	1a	DE-
!LO:TX:t=P:problem=kreska pseudotaktowa	!	!	!	!	!	!	!
0r	.	1B-	De-	1d	DE-	.	.
!	!	!	!	!	!	!LO:TX:t=P:problem=kreska pseudotaktowa	!
.	.	.	.	.	.	2g\	.
=26-	=26-	=26-	=26-	=26-	=26-	=26-	=26-
!	!	!LO:TX:t=P:problem=kreska pseudotaktowa	!	!LO:TX:t=P:problem=kreska pseudotaktowa	!	!LO:TX:t=P:problem=kreska pseudotaktowa	!
.	.	1c,<	-i	1e	-I	1a	-I
*	*	*	*	*	*	*	*Xij
*	*	*	*	*custos:e	*	*	*
!	!	!LO:TX:t=P:problem=kreska pseudotaktowa	!	!	!	!LO:TX:t=P:problem=kreska pseudotaktowa	!
0C	Quam	0c	Quam	0e	Quam	0g	Quam
=27-	=27-	=27-	=27-	=27-	=27-	=27-	=27-
.	.	.	.	.	.	.	.
*custos:F	*	*	*	*	*	*	*
!	!	!	!	!LO:LB:g=original	!	!	!
1C	in-	1c	in-	1e	in-	1g	in-
!LO:LB:g=original	!	!	!	!	!	!	!
=28-	=28-	=28-	=28-	=28-	=28-	=28-	=28-
!	!	!LO:TX:t=P:problem=kreska pseudotaktowa	!	!	!	!LO:TX:t=P:problem=kreska pseudotaktowa	!
1F	-com-	1c	-com-	1f	-com-	1a	-com-
!LO:TX:t=P:problem=kreska pseudotaktowa	!	!	!	!LO:TX:t=P:problem=kreska pseudotaktowa	!	!	!
1B-	-pre-	1d	-pre-	1f	-pre-	1b-	-pre-
=29-	=29-	=29-	=29-	=29-	=29-	=29-	=29-
1.E-X	-hen-	1.e-X	-hen-	1.g	-hen-	1.b-	-hen-
*	*	*	*	*	*	*custos:b	*
!	!	!LO:TX:t=P:problem=kreska pseudotaktowa	!	!	!	!	!
2E-/	-si-	2e-\	-si-	2g\	-si-	2b-\	-si-
!	!	!	!	!	!	!LO:LB:g=original	!
=30-	=30-	=30-	=30-	=30-	=30-	=30-	=30-
!LO:TX:t=P:problem=kreska pseudotaktowa	!	!	!	!LO:TX:t=P:problem=kreska pseudotaktowa	!	!	!
1B-	-bi-	1d	-bi-	1f	-bi-	1b-	-bi-
!	!	!	!	!	!	!LO:TX:t=P:problem=kreska pseudotaktowa	!
1F	-li-	1c	-li-	1f	-li-	1a	-li-
=31-	=31-	=31-	=31-	=31-	=31-	=31-	=31-
*	*	*custos:c	*	*	*	*	*
!	!	!LO:TX:t=P:problem=kreska pseudotaktowa	!	!	!	!	!
1G	-a	1B-	-a	1d	-a	1g	-a
!	!	!LO:LB:g=original	!	!LO:TX:t=P:problem=kreska pseudotaktowa	!	!LO:TX:t=P:problem=kreska pseudotaktowa	!
2C,</	Sunt	2c/	Sunt	1e,<	Sunt	1g	sunt
!LO:TX:t=P:problem=kreska pseudotaktowa	!	!LO:TX:t=P:problem=kreska pseudotaktowa	!	!	!	!	!
2C/	iu-	2G/	iu-	.	.	.	.
=32-	=32-	=32-	=32-	=32-	=32-	=32-	=32-
!	!	!	!	!	!	!LO:TX:t=P:problem=kreska pseudotaktowa	!
2F/	-di-	2A/	-di-	2f\	iu-	1r	.
!	!	!LO:N:acc=#	!	!	!	!	!
2G\	-ci-	2Bn/	-ci-	2.e\	-di-	.	.
!LO:TX:t=P:problem=kreska pseudotaktowa	!	!LO:TX:t=P:problem=kreska pseudotaktowa	!	!	!	!	!
1A	-a	1c	-a	.	.	1a	iu-
.	.	.	.	4e\	-ci-	.	.
!	!	!	!	!LO:TX:t=P:problem=kreska pseudotaktowa	!	!	!
.	.	.	.	[<2f\	-a	.	.
=33-	=33-	=33-	=33-	=33-	=33-	=33-	=33-
!	!	!	!	!LO:N:xstem:cue	!	!LO:TX:t=P:problem=kreska pseudotaktowa	!
2.B-\	e-	2d\	e-	4f\]	.	1f	-di-
.	.	.	.	4e\	.	.	.
.	.	1f	.	4d\	.	.	.
4A\	.	.	.	4c\	.	.	.
!	!	!	!	!LO:TX:t=P:problem=kreska pseudotaktowa	!	!	!
1G	.	.	.	1B-	.	2g\	-ci-
!	!	!LO:TX:t=P:problem=kreska pseudotaktowa	!	!	!	!LO:TX:t=P:problem=kreska pseudotaktowa	!
.	.	2eny\	.	.	.	2g\	-a
=34-	=34-	=34-	=34-	=34-	=34-	=34-	=34-
*custos:C	*	*	*	*	*	*	*
!LO:TX:t=P:problem=kreska pseudotaktowa	!	!	!	!	!	!	!
1F	-ius	2f\	.	2c/	.	1a	e-
!	!	!LO:TX:t=P:problem=kreska pseudotaktowa	!	!	!	!	!
.	.	2c,</	-ius	1f	e-	.	.
!LO:LB:g=original	!	!	!	!	!	!	!
2r	.	1c	iu-	.	.	2g,<\	-ius
*	*	*	*	*custos:f	*	*	*
!LO:TX:t=P:problem=kreska pseudotaktowa	!	!	!	!	!	!LO:TX:t=P:problem=kreska pseudotaktowa	!
2C/	iu-	.	.	2e\	.	2cc\	iu-
!	!	!	!	!LO:LB:g=original	!	!	!
=35-	=35-	=35-	=35-	=35-	=35-	=35-	=35-
2F/	-di-	2A/	-di-	2f,<\	-ius	2cc\	-di-
!	!	!LO:TX:t=P:problem=kreska pseudotaktowa	!	!LO:TX:t=P:problem=kreska pseudotaktowa	!	!	!
2G\	-ci-	2B-y/	-ci-	2d\	iu-	2b-\	-ci-
*	*	*	*	*	*	*custos:f	*
!	!	!	!	!	!	!LO:TX:t=P:problem=kreska pseudotaktowa	!
1A	-a	2c/	-a	2f\	-di-	1a	-a
.	.	2.f\	e-	2c/	-ci-	.	.
!	!	!	!	!	!	!LO:LB:g=original	!
=36-	=36-	=36-	=36-	=36-	=36-	=36-	=36-
*	*	*	*	*	*	*lig	*
!	!	!	!	!LO:TX:t=P:problem=kreska pseudotaktowa	!	!	!
0B-	e-	.	.	0d	.	1f	e-
.	.	4e\	.	.	.	.	.
.	.	4d\	.	.	.	.	.
!	!	!LO:TX:t=P:problem=kreska pseudotaktowa	!	!	!	!	!
.	.	4c\	.	.	.	.	.
.	.	1d	.	.	.	1g	.
*	*	*	*	*	*	*Xlig	*
=37-	=37-	=37-	=37-	=37-	=37-	=37-	=37-
!LO:TX:t=P:problem=kreska pseudotaktowa	!	!	!	!	!	!	!
1A	-ius	2c,</	-ius	2e\	-a	2a,<\	-ius
*	*	*custos:A	*	*	*	*	*
!	!	!LO:TX:t=P:problem=kreska pseudotaktowa	!	!	!	!LO:TX:t=P:problem=kreska pseudotaktowa	!
*	*	*	*ij	*	*	*	*ij
.	.	2A/	iu-	1f	e-	2a\	iu-
!	!	!LO:LB:g=original	!	!	!	!	!
0r	.	1B-	-di-	.	.	2f\	-di-
.	.	.	.	4e\	.	2g\	-ci-
!	!	!	!	!LO:TX:t=P:problem=kreska pseudotaktowa	!	!	!
.	.	.	.	4d\	.	.	.
=38-	=38-	=38-	=38-	=38-	=38-	=38-	=38-
!	!	!	!	!	!	!LO:TX:t=P:problem=kreska pseudotaktowa	!
.	.	2A/	-ci-	2e\	.	1a	-a
!	!	!LO:TX:t=P:problem=kreska pseudotaktowa	!	!	!	!	!
.	.	2F/	-a	1f	.	.	.
!LO:TX:t=P:problem=kreska pseudotaktowa	!	!	!	!	!	!	!
1r	.	1G	e-	.	.	1b-	e-
!	!	!	!	!LO:TX:t=P:problem=kreska pseudotaktowa	!	!	!
.	.	.	.	2e\	.	.	.
=39-	=39-	=39-	=39-	=39-	=39-	=39-	=39-
!	!	!LO:TX:t=P:problem=kreska pseudotaktowa	!	!	!	!LO:TX:t=P:problem=kreska pseudotaktowa	!
2c\	et	1F	-ius	2.f\	.	1a,<	-ius
*	*	*	*Xij	*	*	*	*Xij
4c\	in-	.	.	.	.	.	.
!LO:TX:t=P:problem=kreska pseudotaktowa	!	!	!	!LO:TX:t=P:problem=kreska pseudotaktowa	!	!	!
4B-\	-Ve-	.	.	4e\	.	.	.
2A\	-sti-	0rA	.	4c\	.	2cc\	Et
.	.	.	.	4d\	.	.	.
!	!	!	!	!LO:TX:t=P:problem=kreska pseudotaktowa	!	!	!
2G\	-ga-	.	.	2e\	.	4cc\	in-
!	!	!	!	!	!	!LO:TX:t=P:problem=kreska pseudotaktowa	!
.	.	.	.	.	.	4b-\	-Ve-
=40-	=40-	=40-	=40-	=40-	=40-	=40-	=40-
(2F/	-bi-	.	.	4f\	.	2a\	-sti-
.	.	.	.	4e\	.	.	.
2G\)	.	.	.	4d\	.	2g\	-ga-
.	.	.	.	4c\	.	.	.
*	*	*	*	*custos:f	*	*	*
!LO:TX:t=P:problem=kreska pseudotaktowa	!	!	!	!LO:TX:t=P:problem=kreska pseudotaktowa	!	!	!
1D	-les	2f\	et	1d	-ius	2f\	-bi-
!	!	!	!	!	!	!LO:TX:t=P:problem=kreska pseudotaktowa	!
.	.	4f\	in-	.	.	2d/	-les
!	!	!LO:TX:t=P:problem=kreska pseudotaktowa	!	!	!	!	!
.	.	4e\	-Ve-	.	.	.	.
!	!	!	!	!LO:LB:g=original	!	!	!
=41-	=41-	=41-	=41-	=41-	=41-	=41-	=41-
*custos:F	*	*	*	*	*	*	*
00r	.	2d\	-sti-	2f\	et	1a	Vi-
!	!	!LO:TX:t=P:problem=kreska pseudotaktowa	!	!	!	!	!
.	.	2c/	-ga-	4f\	in-	.	.
!	!	!	!	!LO:TX:t=P:problem=kreska pseudotaktowa	!	!	!
.	.	.	.	4e\	-Ve-	.	.
*	*	*	*	*	*	*custos:g	*
.	.	2B-/	-bi-	2d\	-sti-	2g\	-ae
!	!	!LO:TX:t=P:problem=kreska pseudotaktowa	!	!	!	!LO:LB:g=original	!
.	.	2c/	-les	2c/	-ga-	2.g\	e-
=42-	=42-	=42-	=42-	=42-	=42-	=42-	=42-
.	.	2G/	Vi-	2B-/	-bi-	.	.
.	.	.	.	.	.	4f\	.
!	!	!	!	!LO:TX:t=P:problem=kreska pseudotaktowa	!	!LO:TX:t=P:problem=kreska pseudotaktowa	!
.	.	2.c/	-ae	2c/	-les	2e/	.
.	.	.	.	1G	Vi-	1d	.
.	.	4B-/	.	.	.	.	.
!	!	!LO:TX:t=P:problem=kreska pseudotaktowa	!	!	!	!	!
.	.	2B-/	e-	.	.	.	.
!LO:LB:g=original	!	!	!	!	!	!	!
=43-	=43-	=43-	=43-	=43-	=43-	=43-	=43-
*	*ij	*	*	*	*	*	*
!	!	!	!	!	!	!LO:TX:t=P:problem=kreska pseudotaktowa	!
2F/	et	1c,<	-ius	2.A/	-ae	1c	-ius
4F/	in-	.	.	.	.	.	.
!LO:TX:t=P:problem=kreska pseudotaktowa	!	!	!	!	!	!	!
4Eny/	-Ve-	.	.	8G/L	.	.	.
!	!	!	!	!LO:TX:t=P:problem=kreska pseudotaktowa	!	!	!
.	.	.	.	8A/J	.	.	.
*	*	*	*ij	*	*	*	*
2D/	-sti-	2f\	et	2B-/	.	0r	.
!	!	!	!	!LO:TX:t=P:problem=kreska pseudotaktowa	!	!	!
2C/	-ga-	4f\	in-	2c/	.	.	.
*	*	*custos:B	*	*	*	*	*
!	!	!LO:TX:t=P:problem=kreska pseudotaktowa	!	!	!	!	!
.	.	4e\	-Ve-	.	.	.	.
!	!	!LO:LB:g=original	!	!	!	!	!
=44-	=44-	=44-	=44-	=44-	=44-	=44-	=44-
(2D/	-bi-	2d\	-sti-	2A/	.	.	.
!	!	!LO:TX:t=P:problem=kreska pseudotaktowa	!	!	!	!	!
2BB-/)	.	2f\	-ga-	2B-/	.	.	.
!LO:TX:t=P:problem=kreska pseudotaktowa	!	!	!	!	!	!	!
1C	-les	(2f\	-bi-	1G	e-	2cc\	et
.	.	2e\)	.	.	.	4cc\	in-
!	!	!	!	!	!	!LO:TX:t=P:problem=kreska pseudotaktowa	!
.	.	.	.	.	.	4b-\	-Ve-
=45-	=45-	=45-	=45-	=45-	=45-	=45-	=45-
!	!	!LO:TX:t=P:problem=kreska pseudotaktowa	!	!LO:TX:t=P:problem=kreska pseudotaktowa	!	!	!
1r	.	1f,<	-les	1F	-ius	2a\	-sti-
!	!	!	!	!	!	!LO:TX:t=P:problem=kreska pseudotaktowa	!
.	.	.	.	.	.	2g\	-ga-
2c\	et	2e\	et	2r	.	1g	-bi-
4c\	in-	4e\	in-	2.c/	et	.	.
!LO:TX:t=P:problem=kreska pseudotaktowa	!	!	!	!	!	!	!
4B-\	-Ve-	4d\	-Ve-	.	.	.	.
=46-	=46-	=46-	=46-	=46-	=46-	=46-	=46-
2A\	-sti-	2c/	-sti-	.	.	2a\	-les
.	.	.	.	4c/	in	.	.
!	!	!LO:TX:t=P:problem=kreska pseudotaktowa	!	!LO:TX:t=P:problem=kreska pseudotaktowa	!	!LO:TX:t=P::problem=kreska pseudotaktowa&colon;między nutą a kropką	!
2G\	-ga-	2B-/	-ga-	2d\	Ve-	2.b-\	Vi-
*	*	*	*	*custos:f	*	*	*
(2A\	-bi-	(2c/	-bi-	2c/	-ſti-	.	.
.	.	.	.	.	.	4a\	-ae
!LO:TX:t=P:problem=kreska pseudotaktowa	!	!	!	!LO:LB:g=original	!	!	!
2F/)	.	2A/)	.	1f\	-ga-	1a\	e-
=47-	=47-	=47-	=47-	=47-	=47-	=47-	=47-
!	!	!LO:TX:t=P:problem=kreska pseudotaktowa	!	!	!	!	!
1G	-les	1B-,<	-les	.	.	.	.
*	*Xij	*	*	*	*	*	*
!	!	!	!	!LO:TX:t=P:problem=kreska pseudotaktowa	!	!LO:TX:t=P:problem=kreska pseudotaktowa	!
.	.	.	.	2e\	-bi-	2g\	.
*custos:C	*	*	*	*	*	*	*
2F/	.	2c/	et	2f\	-les	2a\	-ius
!LO:TX:t=P:problem=kreska pseudotaktowa	!	!	!	!	!	!	!
!LO:LB:g=original	!	!	!	!	!	!	!
2C/	Vi-	4c/	in-	2e\	Vi-	2.g\	Vi-
!	!	!LO:TX:t=P:problem=kreska pseudotaktowa	!	!	!	!	!
.	.	4B-/	-Ve-	.	.	.	.
=48-	=48-	=48-	=48-	=48-	=48-	=48-	=48-
!	!	!	!	!LO:TX:t=P:problem=kreska pseudotaktowa	!	!	!
2D/	-ae	2A/	-sti-	1d,<	-ae	.	.
*	*	*	*	*	*	*custos:f	*
.	.	.	.	.	.	4f\	-ae
*	*	*custos:G	*	*	*	*	*
!	!	!	!	!	!	!LO:LB:g=original	!
2BB-/	e-	2B-/	-ga-	.	.	1f	E-
!LO:TX:t=P:problem=kreska pseudotaktowa	!	!LO:LB:g=original	!	!	!	!	!
1C,<	-ius	1G	-bi-	2c/	et	.	.
!	!	!	!	!	!	!LO:TX:t=P:problem=kreska pseudotaktowa	!
.	.	.	.	4c/	in-	2e/	.
!	!	!	!	!LO:TX:t=P:problem=kreska pseudotaktowa	!	!	!
.	.	.	.	4B-/	-Ve-	.	.
=49-	=49-	=49-	=49-	=49-	=49-	=49-	=49-
*	*ij	*	*	*	*	*	*
!	!	!LO:TX:t=P:problem=kreska pseudotaktowa	!	!	!	!LO:TX:t=P:problem=kreska pseudotaktowa	!
2c\	et	1F	-les	2.A/	-sti-	1f,<	-ius
4c\	in-	.	.	.	.	.	.
4B-\	-Ve-	.	.	4B-/	.	.	.
!	!	!LO:TX:t=P:problem=kreska pseudotaktowa	!	!	!	!	!
2A\	-sti-	1r	.	2c/	-ga-	2cc\	et
!LO:TX:t=P:problem=kreska pseudotaktowa	!	!	!	!LO:TX:t=P:problem=kreska pseudotaktowa	!	!	!
2G\	-ga-	.	.	2d\	-bi-	4cc\	in-
!	!	!	!	!	!	!LO:TX:t=P:problem=kreska pseudotaktowa	!
.	.	.	.	.	.	4b-\	-Ve-
=50-	=50-	=50-	=50-	=50-	=50-	=50-	=50-
2A\	-bi-	2f\	et	2c/	-les	2a\	-sti-
!	!	!	!	!LO:TX:t=P:problem=kreska pseudotaktowa	!	!	!
2F/	.	4f\	in-	2c/	Vi-	2a\	-ga-
!	!	!LO:TX:t=P:problem=kreska pseudotaktowa	!	!	!	!	!
.	.	4e\	-Ve-	.	.	.	.
!LO:TX:t=P:problem=kreska pseudotaktowa	!	!	!	!	!	!	!
1G,<	-les	2d\	-sti-	4B-\	-ae	(2b-\	-bi-
.	.	.	.	4c\	.	.	.
!	!	!LO:TX:t=P:problem=kreska pseudotaktowa	!	!	!	!LO:TX:t=P:problem=kreska pseudotaktowa	!
.	.	2B-/	-ga-	4d\	.	2g\)	.
!	!	!	!	!LO:TX:t=P:problem=kreska pseudotaktowa	!	!	!
.	.	.	.	4e\	.	.	.
=51-	=51-	=51-	=51-	=51-	=51-	=51-	=51-
2F/	et	1c	-bi-	2f\	.	2a\	-les
4F/	in-	.	.	2.f\	e-	1a	Vi-
4E/	-Ve-	.	.	.	.	.	.
2D/	-sti-	2d\	-les	.	.	.	.
*	*	*	*Xij	*	*	*	*
*	*	*	*	*custos:d	*	*	*
.	.	.	.	4e\	.	.	.
!LO:TX:t=P:problem=kreska pseudotaktowa	!	!	!	!LO:TX:t=P:problem=kreska pseudotaktowa	!	!	!
!	!	!	!	!LO:PB:g=original	!	!	!
2BB-/	-ga-	1f\	Vi-	2.d\	.	2b-\	-ae
=52-	=52-	=52-	=52-	=52-	=52-	=52-	=52-
!	!	!	!	!	!	!LO:TX:t=P:problem=kreska pseudotaktowa	!
1C	-bi-	.	.	.	.	0g	e-
.	.	.	.	4c/	.	.	.
!	!	!LO:TX:t=P:problem=kreska pseudotaktowa	!	!	!	!	!
.	.	2f\	-ae	1c	.	.	.
*custos:A	*	*	*	*	*	*	*
1G	-les	1d	e-	.	.	.	.
!	!	!	!	!LO:TX:t=P:problem=kreska pseudotaktowa	!	!	!
.	.	.	.	2B-/	.	.	.
!LO:LB:g=original	!	!	!	!	!	!	!
=53-	=53-	=53-	=53-	=53-	=53-	=53-	=53-
2A\	et	00c	.	2c/	-ius	1e,<	-ius
4A\	in-	.	.	1A	Vi-	.	.
!LO:TX:t=P:problem=kreska pseudotaktowa	!	!	!	!	!	!	!
4G\	-Ve-	.	.	.	.	.	.
*	*	*	*	*	*	*	*ij
2F/	-sti-	.	.	.	.	2cc\	et
!	!	!	!	!LO:TX:t=P:problem=kreska pseudotaktowa	!	!	!
2E/	-ga-	.	.	2G/	-ae	4cc\	in-
!	!	!	!	!	!	!LO:TX:t=P:problem=kreska pseudotaktowa	!
.	.	.	.	.	.	4b-\	-Ve-
=54-	=54-	=54-	=54-	=54-	=54-	=54-	=54-
!LO:TX:t=P:problem=kreska pseudotaktowa	!	!	!	!	!	!	!
1F	-bi-	.	.	4A/	.	2a\	-sti-
.	.	.	.	4F/	.	.	.
!	!	!	!	!	!	!LO:TX:t=P:problem=kreska pseudotaktowa	!
.	.	.	.	1f	e-	2f\	-ga-
1C	-les	.	.	.	.	1g	-bi-
*	*Xij	*	*	*	*	*	*
!	!	!	!	!LO:TX:t=P:problem=kreska pseudotaktowa	!	!	!
.	.	.	.	2e\	.	.	.
=55-	=55-	=55-	=55-	=55-	=55-	=55-	=55-
1.F	Vi-	[0cl;;	-ius	2f\	-ius	2a\	-les
*	*	*	*	*	*ij	*	*
.	.	.	.	1a	Vi-	1f	e-
*	*	*	*	*	*	*	*Xij
!	!	!	!	!	!	!LO:TX:t=P:problem=defekt źródła	!
2E/	-ae	.	.	2g\	-ae	2ryy	.
=56-	=56-	=56-	=56-	=56-	=56-	=56-	=56-
0F	e-	0c_	.	0f	e-	0ryy	.
=57-	=57-	=57-	=57-	=57-	=57-	=57-	=57-
0Cl;	-ius	0c]	.	0el;<	-ius	0ryy	.
*	*	*	*	*	*Xij	*	*
==	==	==	==	==	==	==	==
*-	*-	*-	*-	*-	*-	*-	*-
!!!system-decoration: [g1]
!!!RDF**kern: > = above
!!!RDF**kern: < = below
!!!RDF**kern: l = terminal long
!!!AIN: 1 alto 1 empty 1 tenor 1 vox
!!!ENC: Andrzej Kubiczek
!!!END: 2021-03-27
!!!ENC: Kamil Watkowski
!!!END: 2021-03-20
